src/topics/icons/concrete5.svg

<svg height="256" preserveAspectRatio="xMidYMid" viewBox="0 0 256 256" width="256" xmlns="http://www.w3.org/2000/svg" xmlns:xlink="http://www.w3.org/1999/xlink"><linearGradient id="a" x1="49.980476%" x2="49.980476%" y1="0%" y2="99.958454%"><stop offset="0" stop-color="#7a7a7a"/><stop offset="1"/></linearGradient><radialGradient id="b" cx="49.251789%" cy="67.581464%" r="62.337436%"><stop offset="0" stop-color="#fff"/><stop offset=".653161473" stop-color="#6b6b6b"/><stop offset="1"/></radialGradient><linearGradient id="c" x1="49.998309%" x2="49.998309%" y1="-.025275%" y2="100.005495%"><stop offset="0" stop-color="#fff"/><stop offset=".2182" stop-color="#fcfcfc"/><stop offset=".3538" stop-color="#f4f4f4"/><stop offset=".4671" stop-color="#e5e5e5"/><stop offset=".5679" stop-color="#d1d1d1"/><stop offset=".6605" stop-color="#b6b6b6"/><stop offset=".7472" stop-color="#959595"/><stop offset=".8292" stop-color="#6e6e6e"/><stop offset=".9075" stop-color="#414141"/><stop offset=".9803" stop-color="#0f0f0f"/><stop offset="1"/></linearGradient><linearGradient id="d" x1="49.999662%" x2="49.999662%" y1=".120874%" y2="99.902185%"><stop offset="0" stop-color="#fff"/><stop offset=".00587422" stop-color="#f7f7f7"/><stop offset=".03627752" stop-color="#d3d3d3"/><stop offset=".07048631" stop-color="#b2b2b2"/><stop offset=".1083" stop-color="#979797"/><stop offset=".151" stop-color="#818181"/><stop offset=".2009" stop-color="#707070"/><stop offset=".2625" stop-color="#646464"/><stop offset=".349" stop-color="#5e5e5e"/><stop offset=".5892" stop-color="#5c5c5c"/></linearGradient><linearGradient id="e" x1="49.99799%" x2="49.99799%" y1=".007014%" y2="99.990361%"><stop offset="0"/><stop offset=".2757" stop-color="#666"/><stop offset=".3135"/><stop offset=".6216" stop-color="#404040"/><stop offset=".9405" stop-color="#383838"/><stop offset="1"/></linearGradient><path d="m220.737743 0h-186.4715951c-18.9260701 0-34.2661479 15.3400778-34.2661479 34.2661479v186.5712061c0 18.92607 15.3400778 34.266148 34.2661479 34.266148h186.5712061c18.92607 0 34.266148-15.340078 34.266148-34.266148v-186.5712061c-.099611-18.9260701-15.439689-34.2661479-34.365759-34.2661479z" fill="url(#a)"/><path d="m219.940856 1.09571984h-184.9774319c-18.7268482 0-33.86770426 15.14085606-33.86770426 33.86770426v184.9774319c0 18.726848 15.24046696 33.967315 33.96731516 33.967315h184.977432c18.726848 0 33.967315-15.240467 33.967315-33.967315v-184.9774319c-.099611-18.7268482-15.240467-33.86770426-34.066926-33.86770426z" fill="#010101"/><path d="m244.245914 215.259144c0 17.332296-14.045136 31.277821-31.277821 31.277821h-170.6334626c-17.3322958 0-31.2778211-14.045136-31.2778211-31.277821v-170.5338522c0-17.3322957 14.0451362-31.277821 31.2778211-31.277821h170.5338516c17.332296 0 31.277822 14.0451362 31.277822 31.277821v170.5338522z" fill="url(#b)" opacity=".3"/><path d="m213.66537 9.56264591h-172.3268486c-17.5315175 0-31.67626459 14.14474709-31.67626459 31.57665369v62.3564204c34.16653699 9.363424 74.50894939 14.842023 117.83968919 14.842023 43.231128 0 83.673151-5.478599 117.839688-14.842023v-62.3564204c0-17.4319066-14.144747-31.57665369-31.676264-31.57665369z" fill="url(#c)" opacity=".3"/><path d="m41.3385214 18.8264591h172.3268486c17.431906 0 31.576653 14.1447471 31.576653 31.5766537v-9.3634241c0-17.4319066-14.144747-31.57665368-31.576653-31.57665368h-172.3268486c-17.4319066 0-31.5766537 14.24435798-31.5766537 31.67626458v9.3634241c0-17.5315175 14.1447471-31.6762646 31.5766537-31.6762646z" fill="url(#d)" opacity=".64"/><path d="m39.5455253 248.927626c-18.5276265 0-33.46926071-14.941634-33.46926071-33.46926v-175.9128407c0-18.5276265 14.94163421-33.46926071 33.46926071-33.46926071h175.9128407c18.527626 0 33.46926 14.94163421 33.46926 33.46926071v175.9128407c0 18.527626-14.941634 33.46926-33.46926 33.46926zm-31.07859923-209.3821007v175.9128407c0 17.133074 13.94552533 31.078599 31.07859923 31.078599h175.9128407c17.133074 0 31.078599-13.945525 31.078599-31.078599v-175.9128407c0-17.1330739-13.945525-31.07859923-31.078599-31.07859923h-175.9128407c-17.1330739 0-31.07859923 13.94552533-31.07859923 31.07859923z" fill="url(#e)"/><path d="m215.458366 249.525292h-175.9128407c-18.8264592 0-34.06692608-15.340078-34.06692608-34.066926v-175.9128407c0-18.8264592 15.34007778-34.06692608 34.06692608-34.06692608h175.9128407c18.826459 0 34.066926 15.34007778 34.066926 34.06692608v175.9128407c0 18.826459-15.240467 34.066926-34.066926 34.066926zm-175.9128407-242.85136204c-18.1291829 0-32.87159534 14.74241244-32.87159534 32.87159534v175.9128407c0 18.129183 14.74241244 32.871595 32.87159534 32.871595h175.9128407c18.129183 0 32.871595-14.742412 32.871595-32.871595v-175.9128407c0-18.1291829-14.742412-32.87159534-32.871595-32.87159534zm175.9128407 240.46070004h-175.9128407c-17.4319066 0-31.6762646-14.244358-31.6762646-31.676264v-175.9128407c0-17.4319066 14.244358-31.6762646 31.6762646-31.6762646h175.9128407c17.431906 0 31.676264 14.244358 31.676264 31.6762646v175.9128407c0 17.431906-14.244358 31.676264-31.676264 31.676264zm-206.39377456-207.5891047v175.9128407c0 16.73463 13.64669256 30.381323 30.48093386 30.480934h175.9128407c16.73463 0 30.480934-13.646693 30.480934-30.480934v-175.9128407c0-16.7346304-13.646693-30.38132297-30.480934-30.48093386h-175.9128407c-16.7346304.09961089-30.38132297 13.74630346-30.48093386 30.48093386z" fill="#010101"/><path d="m207.688716 154.994553c-18.328405-21.814786-46.418677 24.205447-61.559533 34.066926-10.459144 6.873151-26.396887 7.371206-37.553308.896498-15.2404664-8.964981-10.5587544-30.480934 5.4786-35.760312 14.343969-4.781323 39.445914 10.359533 48.510506-4.781323 11.256031-18.627237-27.094164-23.010116-38.449806-22.512062-20.420233.796887-40.1431906 7.470817-52.1961089 22.910506-13.0490272 16.635019-10.0607003 36.75642 4.2832685 51.897276 14.6428016 14.144747 35.8599224 19.623347 57.0770424 17.929961 5.378989-.398443 14.543191-2.689494 21.515954-6.574319 13.945525-7.670039 56.578988-53.690272 52.893385-58.073151zm-133.777432-16.236576c7.0723736 1.394552-6.6739299-38.150973-7.570428-43.6295723-1.0957198-6.5743191-3.4863813-15.8381323-10.0607004-16.8342413-7.570428-1.0957198-9.6622568 7.570428-8.1680933 15.1408561 1.7929961 7.7696495 19.2249027 43.9284045 25.7992217 45.3229575zm58.670817-20.519845c10.957199 1.593775 10.259922-51.1003888 10.259922-58.2723732 0-6.4747082 2.490273-24.3050584-6.175875-25.8988327-11.953308-2.2910506-13.148638 13.4474708-13.34786 21.814786.398444 8.466926-2.19144 60.7626459 9.263813 62.3564199zm26.098055 8.466926c11.953307 4.980545 21.117509-48.2116728 22.512062-54.9852136 1.294942-6.9727627 1.593774-21.7151751-10.359533-17.0334631-5.976654 2.3906615-7.072374 12.0529183-7.968872 17.4319066-1.494163 6.67393-13.447471 50.7019451-4.183657 54.5867701zm-57.674709-4.48249c13.547082.996109.796888-52.4949415-.298832-59.666926-1.0957201-7.2715953-5.9766539-21.814786-16.0373543-13.3478599-5.0801556 4.2832685-2.7891051 14.1447471-1.7929961 19.7229572.896498 7.1719844 7.7696498 52.4949417 18.1291824 53.2918287z" fill="#fff"/></svg>

<?xml version="1.0" encoding="UTF-8" standalone="no"?>
<svg width="256px" height="256px" viewBox="0 0 256 256" version="1.1" xmlns="http://www.w3.org/2000/svg" xmlns:xlink="http://www.w3.org/1999/xlink" preserveAspectRatio="xMidYMid">
    <defs>
        <linearGradient x1="49.9804764%" y1="-1.64142327e-09%" x2="49.9804764%" y2="99.9584537%" id="linearGradient-1">
            <stop stop-color="#7A7A7A" offset="0%"></stop>
            <stop stop-color="#000000" offset="100%"></stop>
        </linearGradient>
        <radialGradient cx="49.2517888%" cy="67.5814637%" fx="49.2517888%" fy="67.5814637%" r="62.3374355%" id="radialGradient-2">
            <stop stop-color="#FFFFFF" offset="0%"></stop>
            <stop stop-color="#6B6B6B" offset="65.3161473%"></stop>
            <stop stop-color="#000000" offset="100%"></stop>
        </radialGradient>
        <linearGradient x1="49.9983094%" y1="-0.0252747253%" x2="49.9983094%" y2="100.005495%" id="linearGradient-3">
            <stop stop-color="#FFFFFF" offset="0%"></stop>
            <stop stop-color="#FCFCFC" offset="21.82%"></stop>
            <stop stop-color="#F4F4F4" offset="35.38%"></stop>
            <stop stop-color="#E5E5E5" offset="46.71%"></stop>
            <stop stop-color="#D1D1D1" offset="56.79%"></stop>
            <stop stop-color="#B6B6B6" offset="66.05%"></stop>
            <stop stop-color="#959595" offset="74.72%"></stop>
            <stop stop-color="#6E6E6E" offset="82.92%"></stop>
            <stop stop-color="#414141" offset="90.75%"></stop>
            <stop stop-color="#0F0F0F" offset="98.03%"></stop>
            <stop stop-color="#000000" offset="100%"></stop>
        </linearGradient>
        <linearGradient x1="49.9996616%" y1="0.120873786%" x2="49.9996616%" y2="99.9021845%" id="linearGradient-4">
            <stop stop-color="#FFFFFF" offset="0%"></stop>
            <stop stop-color="#F7F7F7" offset="0.587422%"></stop>
            <stop stop-color="#D3D3D3" offset="3.627752%"></stop>
            <stop stop-color="#B2B2B2" offset="7.048631%"></stop>
            <stop stop-color="#979797" offset="10.83%"></stop>
            <stop stop-color="#818181" offset="15.1%"></stop>
            <stop stop-color="#707070" offset="20.09%"></stop>
            <stop stop-color="#646464" offset="26.25%"></stop>
            <stop stop-color="#5E5E5E" offset="34.9%"></stop>
            <stop stop-color="#5C5C5C" offset="58.92%"></stop>
        </linearGradient>
        <linearGradient x1="49.9979902%" y1="0.00701394586%" x2="49.9979902%" y2="99.990361%" id="linearGradient-5">
            <stop stop-color="#000000" offset="0%"></stop>
            <stop stop-color="#666666" offset="27.57%"></stop>
            <stop stop-color="#000000" offset="31.35%"></stop>
            <stop stop-color="#404040" offset="62.16%"></stop>
            <stop stop-color="#383838" offset="94.05%"></stop>
            <stop stop-color="#000000" offset="100%"></stop>
        </linearGradient>
    </defs>
	<g>
		<path d="M220.737743,0 L34.2661479,0 C15.3400778,0 0,15.3400778 0,34.2661479 L0,220.837354 C0,239.763424 15.3400778,255.103502 34.2661479,255.103502 L220.837354,255.103502 C239.763424,255.103502 255.103502,239.763424 255.103502,220.837354 L255.103502,34.2661479 C255.003891,15.3400778 239.663813,0 220.737743,0 L220.737743,0 L220.737743,0 Z" fill="url(#linearGradient-1)"></path>
		<path d="M219.940856,1.09571984 L34.9634241,1.09571984 C16.2365759,1.09571984 1.09571984,16.2365759 1.09571984,34.9634241 L1.09571984,219.940856 C1.09571984,238.667704 16.3361868,253.908171 35.063035,253.908171 L220.040467,253.908171 C238.767315,253.908171 254.007782,238.667704 254.007782,219.940856 L254.007782,34.9634241 C253.908171,16.2365759 238.767315,1.09571984 219.940856,1.09571984 L219.940856,1.09571984 L219.940856,1.09571984 Z" fill="#010101"></path>
		<path d="M244.245914,215.259144 C244.245914,232.59144 230.200778,246.536965 212.968093,246.536965 L42.3346304,246.536965 C25.0023346,246.536965 11.0568093,232.491829 11.0568093,215.259144 L11.0568093,44.7252918 C11.0568093,27.3929961 25.1019455,13.4474708 42.3346304,13.4474708 L212.868482,13.4474708 C230.200778,13.4474708 244.146304,27.492607 244.146304,44.7252918 L244.146304,215.259144 L244.245914,215.259144 L244.245914,215.259144 Z" opacity="0.3" fill="url(#radialGradient-2)"></path>
		<path d="M213.66537,9.56264591 L41.3385214,9.56264591 C23.8070039,9.56264591 9.66225681,23.707393 9.66225681,41.1392996 L9.66225681,103.49572 C43.8287938,112.859144 84.1712062,118.337743 127.501946,118.337743 C170.733074,118.337743 211.175097,112.859144 245.341634,103.49572 L245.341634,41.1392996 C245.341634,23.707393 231.196887,9.56264591 213.66537,9.56264591 L213.66537,9.56264591 L213.66537,9.56264591 Z" opacity="0.3" fill="url(#linearGradient-3)"></path>
		<path d="M41.3385214,18.8264591 L213.66537,18.8264591 C231.097276,18.8264591 245.242023,32.9712062 245.242023,50.4031128 L245.242023,41.0396887 C245.242023,23.6077821 231.097276,9.46303502 213.66537,9.46303502 L41.3385214,9.46303502 C23.9066148,9.46303502 9.7618677,23.707393 9.7618677,41.1392996 L9.7618677,50.5027237 C9.7618677,32.9712062 23.9066148,18.8264591 41.3385214,18.8264591 L41.3385214,18.8264591 L41.3385214,18.8264591 Z" opacity="0.64" fill="url(#linearGradient-4)"></path>
		<path d="M39.5455253,248.927626 C21.0178988,248.927626 6.07626459,233.985992 6.07626459,215.458366 L6.07626459,215.458366 L6.07626459,39.5455253 C6.07626459,21.0178988 21.0178988,6.07626459 39.5455253,6.07626459 L39.5455253,6.07626459 L215.458366,6.07626459 C233.985992,6.07626459 248.927626,21.0178988 248.927626,39.5455253 L248.927626,39.5455253 L248.927626,215.458366 C248.927626,233.985992 233.985992,248.927626 215.458366,248.927626 L215.458366,248.927626 L39.5455253,248.927626 L39.5455253,248.927626 Z M8.46692607,39.5455253 L8.46692607,215.458366 C8.46692607,232.59144 22.4124514,246.536965 39.5455253,246.536965 L39.5455253,246.536965 L215.458366,246.536965 C232.59144,246.536965 246.536965,232.59144 246.536965,215.458366 L246.536965,215.458366 L246.536965,39.5455253 C246.536965,22.4124514 232.59144,8.46692607 215.458366,8.46692607 L215.458366,8.46692607 L39.5455253,8.46692607 C22.4124514,8.46692607 8.46692607,22.4124514 8.46692607,39.5455253 L8.46692607,39.5455253 L8.46692607,39.5455253 Z" fill="url(#linearGradient-5)"></path>
		<path d="M215.458366,249.525292 L39.5455253,249.525292 C20.7190661,249.525292 5.47859922,234.185214 5.47859922,215.458366 L5.47859922,39.5455253 C5.47859922,20.7190661 20.818677,5.47859922 39.5455253,5.47859922 L215.458366,5.47859922 C234.284825,5.47859922 249.525292,20.818677 249.525292,39.5455253 L249.525292,215.458366 C249.525292,234.284825 234.284825,249.525292 215.458366,249.525292 L215.458366,249.525292 L215.458366,249.525292 Z M39.5455253,6.67392996 C21.4163424,6.67392996 6.67392996,21.4163424 6.67392996,39.5455253 L6.67392996,215.458366 C6.67392996,233.587549 21.4163424,248.329961 39.5455253,248.329961 L215.458366,248.329961 C233.587549,248.329961 248.329961,233.587549 248.329961,215.458366 L248.329961,39.5455253 C248.329961,21.4163424 233.587549,6.67392996 215.458366,6.67392996 L39.5455253,6.67392996 L39.5455253,6.67392996 Z M215.458366,247.13463 L39.5455253,247.13463 C22.1136187,247.13463 7.8692607,232.890272 7.8692607,215.458366 L7.8692607,39.5455253 C7.8692607,22.1136187 22.1136187,7.8692607 39.5455253,7.8692607 L215.458366,7.8692607 C232.890272,7.8692607 247.13463,22.1136187 247.13463,39.5455253 L247.13463,215.458366 C247.13463,232.890272 232.890272,247.13463 215.458366,247.13463 L215.458366,247.13463 L215.458366,247.13463 Z M9.06459144,39.5455253 L9.06459144,215.458366 C9.06459144,232.192996 22.711284,245.839689 39.5455253,245.9393 L215.458366,245.9393 C232.192996,245.9393 245.9393,232.292607 245.9393,215.458366 L245.9393,39.5455253 C245.9393,22.8108949 232.292607,9.16420233 215.458366,9.06459144 L39.5455253,9.06459144 C22.8108949,9.16420233 9.16420233,22.8108949 9.06459144,39.5455253 L9.06459144,39.5455253 L9.06459144,39.5455253 Z" fill="#010101"></path>
		<path d="M207.688716,154.994553 C189.360311,133.179767 161.270039,179.2 146.129183,189.061479 C135.670039,195.93463 119.732296,196.432685 108.575875,189.957977 C93.3354086,180.992996 98.0171206,159.477043 114.054475,154.197665 C128.398444,149.416342 153.500389,164.557198 162.564981,149.416342 C173.821012,130.789105 135.470817,126.406226 124.115175,126.90428 C103.694942,127.701167 83.9719844,134.375097 71.9190661,149.814786 C58.8700389,166.449805 61.8583658,186.571206 76.2023346,201.712062 C90.8451362,215.856809 112.062257,221.335409 133.279377,219.642023 C138.658366,219.24358 147.822568,216.952529 154.795331,213.067704 C168.740856,205.397665 211.374319,159.377432 207.688716,154.994553 L207.688716,154.994553 L207.688716,154.994553 Z M73.911284,138.757977 C80.9836576,140.152529 67.2373541,100.607004 66.340856,95.1284047 C65.2451362,88.5540856 62.8544747,79.2902724 56.2801556,78.2941634 C48.7097276,77.1984436 46.6178988,85.8645914 48.1120623,93.4350195 C49.9050584,101.204669 67.336965,137.363424 73.911284,138.757977 L73.911284,138.757977 L73.911284,138.757977 Z M132.582101,118.238132 C143.5393,119.831907 142.842023,67.1377432 142.842023,59.9657588 C142.842023,53.4910506 145.332296,35.6607004 136.666148,34.0669261 C124.71284,31.7758755 123.51751,47.5143969 123.318288,55.8817121 C123.716732,64.3486381 121.126848,116.644358 132.582101,118.238132 L132.582101,118.238132 L132.582101,118.238132 Z M158.680156,126.705058 C170.633463,131.685603 179.797665,78.4933852 181.192218,71.7198444 C182.48716,64.7470817 182.785992,50.0046693 170.832685,54.6863813 C164.856031,57.0770428 163.760311,66.7392996 162.863813,72.1182879 C161.36965,78.7922179 149.416342,122.820233 158.680156,126.705058 L158.680156,126.705058 L158.680156,126.705058 Z M101.005447,122.222568 C114.552529,123.218677 101.802335,69.7276265 100.706615,62.555642 C99.6108949,55.2840467 94.7299611,40.740856 84.6692607,49.2077821 C79.5891051,53.4910506 81.8801556,63.3525292 82.8762646,68.9307393 C83.7727626,76.1027237 90.6459144,121.425681 101.005447,122.222568 L101.005447,122.222568 L101.005447,122.222568 Z" fill="#FFFFFF"></path>
	</g>
</svg>
